X:1
T:Mrs. Haswell
T:Mrs. Haswell
T:Duncan MacIntyre
C:Duncan MacIntyre
L:1/8
M:4/4
K:Eb
V:1 treble 
V:1
 G | E>GB>c B>GB>c | B<G e>c B<GBc | E>GB>c B<G e>c | B<G G>E{DE} [FB]2 [FB]G | E>GB>c B>GB>c | %6
 B<G e>c B<G Bc/d/ |{d} e>f g/f/e/d/{d} ecc{d}e | B<GG>E{DE} [FB]2 [FB] || G/A/ | B<G e>c BGGc | %11
 B<G e>G B2 Bc | BG/B/ c>d e/d/c/B/{d} e>c | B<e G>E{DE} [FB]2 [FB]G/A/ | B<G e>c BGGc | %15
 c/B/A/G/{G} e>g{G} B2 Bc/d/ | e>f g/f/e/d/{d} ecc{d}e | B<G G>E{DE} [FB]2 [FB] || %18

